public/img/assets/icons/weather-conditions/small/thunder-showers-night.svg

<svg width="24" height="24" viewBox="0 0 24 24" fill="none" xmlns="http://www.w3.org/2000/svg">
<path d="M6.7496 19.8126C6.62177 19.8125 6.49608 19.777 6.38446 19.7095C6.27284 19.642 6.179 19.5448 6.11184 19.4269C6.04469 19.3091 6.00644 19.1746 6.00075 19.0363C5.99505 18.8979 6.02208 18.7603 6.07929 18.6365L7.20429 16.199C7.2933 16.0062 7.44934 15.8597 7.63808 15.7916C7.82682 15.7235 8.03279 15.7395 8.21069 15.8359C8.3886 15.9323 8.52385 16.1014 8.58671 16.3058C8.64956 16.5103 8.63486 16.7334 8.54585 16.9262L7.42085 19.3637C7.3585 19.4986 7.26267 19.6122 7.1441 19.6914C7.02554 19.7707 6.88893 19.8127 6.7496 19.8126Z" fill="#D580FF"/>
<path d="M13.5082 19.9769L13.992 16.8333H18.1729L17.8726 18.1335H18.9053C19.0156 18.1336 19.1237 18.1667 19.2178 18.2289C19.3119 18.2912 19.3884 18.3803 19.4388 18.4865C19.4892 18.5927 19.5116 18.7118 19.5036 18.8309C19.4955 18.9499 19.4574 19.0643 19.3933 19.1614L16.3903 23.712C16.3162 23.8237 16.2113 23.9071 16.0907 23.9503C15.97 23.9934 15.8399 23.994 15.7189 23.952C15.5979 23.91 15.4924 23.8276 15.4174 23.7166C15.3424 23.6055 15.3019 23.4716 15.3017 23.3341V20.7338H14.1005C14.0133 20.7338 13.9271 20.7132 13.848 20.6735C13.7689 20.6338 13.6987 20.5759 13.6423 20.5039C13.5859 20.4319 13.5447 20.3474 13.5216 20.2564C13.4984 20.1654 13.4938 20.07 13.5082 19.9769Z" fill="#D580FF"/>
<path d="M10.7496 19.8126C10.6218 19.8125 10.4961 19.777 10.3845 19.7095C10.2728 19.642 10.179 19.5448 10.1118 19.4269C10.0447 19.3091 10.0064 19.1746 10.0007 19.0363C9.99505 18.8979 10.0221 18.7603 10.0793 18.6365L11.2043 16.199C11.2933 16.0062 11.4493 15.8597 11.6381 15.7916C11.8268 15.7235 12.0328 15.7395 12.2107 15.8359C12.3886 15.9323 12.5239 16.1014 12.5867 16.3058C12.6496 16.5103 12.6349 16.7334 12.5459 16.9262L11.4208 19.3637C11.3585 19.4986 11.2627 19.6122 11.1441 19.6914C11.0255 19.7707 10.8889 19.8127 10.7496 19.8126Z" fill="#D580FF"/>
<path d="M13.0024 3.8432C16.1714 3.8432 17.9684 6.11495 18.2304 8.85903H18.3104C18.7946 8.85832 19.2743 8.96097 19.7219 9.16111C20.1696 9.36125 20.5765 9.65496 20.9193 10.0255C21.2621 10.396 21.5343 10.836 21.7201 11.3205C21.9059 11.805 22.0019 12.3243 22.0024 12.849C22.0017 13.3735 21.9057 13.8927 21.7198 14.3771C21.5339 14.8614 21.2618 15.3013 20.9189 15.6717C20.5761 16.0421 20.1693 16.3357 19.7217 16.5358C19.2741 16.7359 18.7946 16.8385 18.3104 16.8378H7.69438C7.2102 16.8385 6.73062 16.7359 6.28305 16.5358C5.83547 16.3357 5.42865 16.0421 5.08581 15.6717C4.74298 15.3013 4.47084 14.8614 4.28495 14.3771C4.09905 13.8927 4.00304 13.3735 4.00238 12.849C4.00291 12.3243 4.09883 11.805 4.28466 11.3205C4.4705 10.836 4.74261 10.396 5.08546 10.0255C5.42831 9.65496 5.83517 9.36125 6.28281 9.16111C6.73046 8.96097 7.21011 8.85832 7.69438 8.85903H7.77438C8.03738 6.09653 9.83438 3.8432 13.0024 3.8432Z" fill="#D580FF"/>
<path d="M6.58843 0.00119131C7.38536 0.0452941 8.1608 0.282283 8.85137 0.692787C9.86579 1.29132 10.6465 2.23239 11.0603 3.35553C9.07536 3.93118 7.6554 5.40877 7.06642 7.40455L6.99642 7.65697L6.93942 7.90118L6.73343 7.94017C5.607 8.18503 4.60844 8.84828 3.92951 9.80256L3.77451 9.71534C3.1213 9.3294 2.56033 8.79864 2.13256 8.16181C2.06731 8.06471 2.02468 7.95351 2.00797 7.83681C1.99126 7.72011 2.00091 7.60103 2.03619 7.48877C2.07146 7.37651 2.13141 7.27407 2.21141 7.18937C2.29141 7.10466 2.38931 7.03996 2.49755 7.00026C4.1405 6.39691 5.02548 5.71763 5.53146 4.72641C6.08445 3.64387 6.18644 2.49566 5.81946 0.953418C5.79144 0.836578 5.79052 0.714627 5.81676 0.597356C5.84301 0.480085 5.89568 0.370761 5.97055 0.278163C6.04543 0.185565 6.14042 0.112273 6.2479 0.0641717C6.35538 0.01607 6.47236 -0.00550079 6.58943 0.00119131H6.58843Z" fill="#D580FF"/>
</svg>

<svg width="24" height="24" fill="none" xmlns="http://www.w3.org/2000/svg"><path d="M6.75 19.813a.706.706 0 0 1-.366-.104.78.78 0 0 1-.272-.282.861.861 0 0 1-.033-.79l1.125-2.438a.771.771 0 0 1 .434-.407.698.698 0 0 1 .573.044.797.797 0 0 1 .376.47.875.875 0 0 1-.041.62L7.42 19.364a.792.792 0 0 1-.277.327.708.708 0 0 1-.394.122ZM13.508 19.977l.484-3.144h4.18l-.3 1.3h1.033c.11 0 .219.034.313.096s.17.151.22.258a.696.696 0 0 1-.045.674l-3.003 4.551a.607.607 0 0 1-.3.238.557.557 0 0 1-.371.002.605.605 0 0 1-.302-.235.687.687 0 0 1-.115-.383v-2.6H14.1a.562.562 0 0 1-.253-.06.61.61 0 0 1-.206-.17.7.7 0 0 1-.134-.527ZM10.75 19.813a.706.706 0 0 1-.366-.104.78.78 0 0 1-.272-.282.862.862 0 0 1-.033-.79l1.125-2.438a.771.771 0 0 1 .434-.407.698.698 0 0 1 .573.044.797.797 0 0 1 .376.47.874.874 0 0 1-.041.62l-1.125 2.438a.791.791 0 0 1-.277.327.708.708 0 0 1-.394.122Z" fill="#D580FF"/><path d="M13.002 3.843c3.17 0 4.966 2.272 5.228 5.016h.08c.485 0 .964.102 1.412.302.448.2.854.494 1.197.864.343.371.615.811.801 1.295a4.285 4.285 0 0 1 0 3.057 4.03 4.03 0 0 1-.801 1.295c-.343.37-.75.664-1.197.864-.448.2-.927.302-1.412.302H7.694c-.484 0-.963-.102-1.41-.302a3.682 3.682 0 0 1-1.198-.864 4.03 4.03 0 0 1-.801-1.295 4.285 4.285 0 0 1 0-3.057 4.03 4.03 0 0 1 .8-1.295c.343-.37.75-.664 1.198-.864.447-.2.927-.303 1.411-.302h.08c.263-2.762 2.06-5.016 5.228-5.016Z" fill="#D580FF"/><path d="M6.588.001a4.964 4.964 0 0 1 2.263.692 5.154 5.154 0 0 1 2.21 2.663c-1.986.575-3.406 2.053-3.995 4.049l-.07.252-.057.244-.206.04A4.661 4.661 0 0 0 3.93 9.802l-.155-.088a5.114 5.114 0 0 1-1.642-1.553A.781.781 0 0 1 2.498 7C4.14 6.397 5.025 5.718 5.53 4.726c.553-1.082.655-2.23.288-3.773a.789.789 0 0 1 .152-.675.752.752 0 0 1 .618-.277Z" fill="#D580FF"/></svg>
